ui/public/images/icons/console.svg

<?xml version="1.0" encoding="UTF-8"?>
<svg width="14px" height="14px" viewBox="0 0 14 14" version="1.1" xmlns="http://www.w3.org/2000/svg" xmlns:xlink="http://www.w3.org/1999/xlink">
    <!-- Generator: Sketch 61.2 (89653) - https://sketch.com -->
    <title>Icon</title>
    <desc>Created with Sketch.</desc>
    <defs>
        <rect id="path-1" x="0" y="0" width="72" height="29"></rect>
        <filter x="-2.8%" y="-6.9%" width="105.6%" height="127.6%" filterUnits="objectBoundingBox" id="filter-2">
            <feMorphology radius="1" operator="erode" in="SourceAlpha" result="shadowSpreadOuter1"></feMorphology>
            <feOffset dx="0" dy="5" in="shadowSpreadOuter1" result="shadowOffsetOuter1"></feOffset>
            <feGaussianBlur stdDeviation="0.5" in="shadowOffsetOuter1" result="shadowBlurOuter1"></feGaussianBlur>
            <feColorMatrix values="0 0 0 0 0   0 0 0 0 0   0 0 0 0 0  0 0 0 0.12 0" type="matrix" in="shadowBlurOuter1"></feColorMatrix>
        </filter>
        <rect id="path-3" x="0" y="0" width="72" height="29" rx="2"></rect>
        <path d="M12.6666667,1.33333333 C13.7712362,1.33333333 14.6666667,2.22876383 14.6666667,3.33333333 L14.6666667,12 C14.6666667,13.1045695 13.7712362,14 12.6666667,14 L3.33333333,14 C2.22876383,14 1.33333333,13.1045695 1.33333333,12 L1.33333333,3.33333333 C1.33333333,2.22876383 2.22876383,1.33333333 3.33333333,1.33333333 L12.6666667,1.33333333 Z M12.3333333,5.33333333 L3.66666667,5.33333333 C3.11438192,5.33333333 2.66666667,5.78104858 2.66666667,6.33333333 L2.66666667,6.33333333 L2.66666667,11.6666667 C2.66666667,12.2189514 3.11438192,12.6666667 3.66666667,12.6666667 L3.66666667,12.6666667 L12.3333333,12.6666667 C12.8856181,12.6666667 13.3333333,12.2189514 13.3333333,11.6666667 L13.3333333,11.6666667 L13.3333333,6.33333333 C13.3333333,5.78104858 12.8856181,5.33333333 12.3333333,5.33333333 L12.3333333,5.33333333 Z M5.34924946,6.66666667 L6.74804405,8.05337145 L7.6886277,9.00604491 L7.04484531,9.63773748 L5.34924946,11.3333333 L4.40866581,10.3927497 L5.79803872,9.00337677 L4.40528904,7.61062709 L5.34924946,6.66666667 Z M12,10 L12,11.3333333 L8,11.3333333 L8,10 L12,10 Z M3.33333333,2.66666667 C2.9651435,2.66666667 2.66666667,2.9651435 2.66666667,3.33333333 C2.66666667,3.70152317 2.9651435,4 3.33333333,4 C3.70152317,4 4,3.70152317 4,3.33333333 C4,2.9651435 3.70152317,2.66666667 3.33333333,2.66666667 Z M5.33333333,2.66666667 C4.9651435,2.66666667 4.66666667,2.9651435 4.66666667,3.33333333 C4.66666667,3.70152317 4.9651435,4 5.33333333,4 C5.70152317,4 6,3.70152317 6,3.33333333 C6,2.9651435 5.70152317,2.66666667 5.33333333,2.66666667 Z M7.33333333,2.66666667 C6.9651435,2.66666667 6.66666667,2.9651435 6.66666667,3.33333333 C6.66666667,3.70152317 6.9651435,4 7.33333333,4 C7.70152317,4 8,3.70152317 8,3.33333333 C8,2.9651435 7.70152317,2.66666667 7.33333333,2.66666667 Z" id="path-5"></path>
    </defs>
    <g id="Symbols" stroke="none" stroke-width="1" fill="none" fill-rule="evenodd">
        <g id="exec-/-button-/-default" transform="translate(-9.000000, -7.000000)">
            <g>
                <g id="🎨-Design-guidelines-/-❏-Elevations-/-$box-shadow-low">
                    <g id="Low">
                        <use fill="black" fill-opacity="1" filter="url(#filter-2)" xlink:href="#path-1"></use>
                        <use fill="#FFFFFF" fill-rule="evenodd" xlink:href="#path-1"></use>
                    </g>
                </g>
                <mask id="mask-4" fill="white">
                    <use xlink:href="#path-3"></use>
                </mask>
                <rect stroke="#BBC4D1" x="0.5" y="0.5" width="71" height="28" rx="2"></rect>
                <g id="icons-/-console" mask="url(#mask-4)">
                    <g transform="translate(8.000000, 6.500000)">
                        <mask id="mask-6" fill="white">
                            <use xlink:href="#path-5"></use>
                        </mask>
                        <use id="Combined-Shape" stroke="none" fill="#000000" fill-rule="nonzero" xlink:href="#path-5"></use>
                        <g id="🎟-Color-/-UI-Gray-/-$ui-gray-800" stroke="none" fill="none" mask="url(#mask-6)">
                            <rect fill="#373A42" x="0" y="0" width="16" height="16"></rect>
                            <rect id="color" fill="#373A42" fill-rule="evenodd" x="0" y="0" width="16" height="16"></rect>
                        </g>
                    </g>
                </g>
            </g>
        </g>
    </g>
</svg>

<svg width="14" height="14" viewBox="0 0 14 14" xmlns="http://www.w3.org/2000/svg" xmlns:xlink="http://www.w3.org/1999/xlink"><defs><path id="b" d="M0 0h72v29H0z"/><path d="M12.667 1.333a2 2 0 012 2V12a2 2 0 01-2 2H3.333a2 2 0 01-2-2V3.333a2 2 0 012-2h9.334zm-.334 4H3.667a1 1 0 00-1 1v5.334a1 1 0 001 1h8.666a1 1 0 001-1V6.333a1 1 0 00-1-1zM5.35 6.667l1.399 1.386.94.953-.643.632-1.696 1.695-.94-.94 1.389-1.39-1.393-1.392.944-.944zM12 10v1.333H8V10h4zM3.333 2.667a.667.667 0 100 1.333.667.667 0 000-1.333zm2 0a.667.667 0 100 1.333.667.667 0 000-1.333zm2 0a.667.667 0 100 1.333.667.667 0 000-1.333z" id="e"/><filter x="-2.8%" y="-6.9%" width="105.6%" height="127.6%" filterUnits="objectBoundingBox" id="a"><feMorphology radius="1" in="SourceAlpha" result="shadowSpreadOuter1"/><feOffset dy="5" in="shadowSpreadOuter1" result="shadowOffsetOuter1"/><feGaussianBlur stdDeviation=".5" in="shadowOffsetOuter1" result="shadowBlurOuter1"/><feColorMatrix values="0 0 0 0 0 0 0 0 0 0 0 0 0 0 0 0 0 0 0.12 0" in="shadowBlurOuter1"/></filter><rect id="c" x="0" y="0" width="72" height="29" rx="2"/></defs><g transform="translate(-9 -7)" fill="none" fill-rule="evenodd"><use fill="#000" filter="url(#a)" xlink:href="#b"/><use fill="#FFF" xlink:href="#b"/><mask id="d" fill="#fff"><use xlink:href="#c"/></mask><rect stroke="#BBC4D1" x=".5" y=".5" width="71" height="28" rx="2"/><g mask="url(#d)"><g transform="translate(8 6.5)"><mask id="f" fill="#fff"><use xlink:href="#e"/></mask><use fill="#000" fill-rule="nonzero" xlink:href="#e"/><g mask="url(#f)" fill="#373A42"><path d="M0 0h16v16H0z"/><path d="M0 0h16v16H0z"/></g></g></g></g></svg>
